X: 1929
T: Tickets Please
B: australian traditional tunes wiki
M:2/4
L:1/8
Q: 1/4=100
K:G
V:1 
a|:"G"b2"D7"a2|"G"g3d|"D7"f>f ed|f3d|f>f ed|"G"g2-ga|
b2"D7"a2|"G"g3d|"D7"f>f ed|f3d|f>f ed|"G"g2-g"fine"c||
||"G"Bd dd|ed dc|Bd ga|g3f/g/|"C"ag fe/e/|"G"edd2|"Am"ed cA|"G"B3A|
"G"Bd dd|ed dc|Bd ga|g4|"C"ag fe/e/|"G"ed dd|"Am"e2"D7"f2|"D.C. al fine""G"g3a:|
% abcbook-tune_id 6342d5be2c8495dad75353de


% abcbook-boost 0
% abcbook-tablature 
% abcbook-transpose 
% abcbook-lastupdated 1665324488504
% abcbook-soundfonts 
% abcbook-repeats 1
% NFF Book 2013

